X: 592
T: Duruşun Andırır
C: Âşık Yener
O: Turkey
F: http://compmusic.upf.edu/node/140
N: nihavent--fantezi--sofyan--durusun_andirir--unal_narcin
N: makam= nihavent
N: form= fantezi
N: usul= sofyan = 4/4
M: 4/4
L: 1/16
K: C _B _e  
Q: 1/4=105
%%MIDI tuningsystem comma53
z2ga b2g2 bb7  | b2a2 g2f2 e8  | z2fg a2f2 aa7  | \
w:   |   |   | 
a2g2 f2e2 zd2B cBd2  | 
w:   | 
z2cd e2c2 ze2g ze2d  | c2Bc d2B2 dGAB cdeg  | 
w:   |   | 
z^f2f f2f2 ff7  | z2ag ^f2ed e2d2 f2g2  | \
w:   |   | 
z2a2 za3 z2a2 za3  | 
w:   | 
z2ba g2^f2 g8  | G2zB d2Bd G2zB dBdB  | \
w:   |   | 
G2zB d2Bd G2zB dBdB  | 
w:   | 
G2dd dd3 dd7  | dc3 B3A G8  | ee4-eee e2e6  | \
w:  *  Du ru şun_ an dı rır   |  a sil  soy lu mu    |  Hi sar  Ku ru çeş me   | 
f2g2 f3e d3B cBdB  | 
w:  sa hil  boy lu mu   SAZ  | 
G2dd dd3 dd7  | dc3 B3A G8  | ee4-eee e2e6  | \
w:  *  Du ru şun_ an dı rır   |  a sil  soy lu mu    |  Hi sar  Ku ru çeş me   | 
f2g2 f3e d3B cBd2  | 
w:  sa hil  boy lu mu   SAZ  | 
zc2d e2c2 ee7  | zB2c d3B dd2B cBd2  | \
w:  Ar na vut köy lü  mü   |  Or ta köy lü  mü   SAZ  | 
z^f2f f2f2 ff7  | 
w:  Kız  sen_ İs tan bu lun   | 
z2ag ^f2ed e2d2 f2g2  | za2a a2a2 aa7  | \
w:  ne re sin den *  sin   SAZ  |  Kız  sen_ İs tan bu lun   | 
z2ba g2^f2 g3d gab2  | 
w:  ne re sin den sin   SAZ  | 
g2a2 b3g bb7  | z2ba g3f e8  | f3g a2f2 aa7  | \
w:  Bil mem  söz lü  mü sün   |  ya  ni şan lı  mı    |  Sev gi lin  yaş lı  mı   | 
z2ag f3e d8  | 
w:  de li kan lı  mı    | 
cd3 e3d e2e6  | B3c d3B d8  | z^f2f f2f2 ff7  | \
w:  E mir gân  Be bek li   |  Â şi yan lı  mı    |  Kız  sen_ İs tan bu lun   | 
z2ag ^f2ed e2d2 f2g2  | 
w:  ne re sin den *  sin   SAZ  | 
za2a a2a2 aa7  | z2ba g2^f2 g8  | z2ga b2g2 bb7  | \
w:  Kız  sen_ İs tan bu lun   |  ne re sin den sin    |   | 
b2a2 g2f2 e8  | 
w:   | 
z2fg a2f2 aa7  | a2g2 f2e2 zd2B cBd2  | \
w:   |   | 
z2cd e2c2 ze2g ze2d  | 
w:   | 
c2Bc d2B2 dGAB cdeg  | z^f2f f2f2 ff7  | \
w:   |   | 
z2ag ^f2ed e2d2 f2g2  | 
w:   | 
z2a2 za3 z2a2 za3  | z2ba g2^f2 g8  | \
w:   |   | 
G2zB d2Bd G2zB dBdB  | 
w:   | 
G2zB d2Bd G2zB dBdB  | G2dd3dd d8  | \
w:   |  *  Ba şın da  e sen   | 
dc4-cBA G8  | 
w:  Ka vak  ye li  mi    | 
ee4-eee e8  | f2g4fe d3B cBd2  | G2dd3dd d8  | 
w:  Gö zün den_ a kan   |  aş kın  se li  mi   SAZ  |  *  Ba şın da  e sen   | 
dc4-cBA G8  | ee4-eee e8  | f2g4fe d3B cBd2  | 
w:  Ka vak  ye li  mi    |  Gö zün den_ a kan   |  aş kın  se li  mi   SAZ  | 
z2cd e3c e2e6  | B2c4dB d8  | z^f2f f2f2 ff7  | \
w:  Sa rı yer  Ta rab ya   |  İs tin ye li  mi    |  Kız  sen_ İs tan bu lun   | 
z2ag ^f2ed e8  | 
w:  ne re sin den *  sin    | 
za2a a2a2 aa7  | z2ba g2^f2 g3d gab2  | \
w:  Kız  sen_ İs tan bu lun   |  ne re sin den sin   SAZ  | 
ga4-abg bb7  | 
w:  So yun  bu ra lı  mı   | 
zb2a g2f2 e8  | z2fg a3f aa7  | ag3 f2e2 d8  | \
w:  baş ka  yer den  mi    |  Hu yun_ â şı ğı na   |  kü sen ler den  mi    | 
cd3 e3c e2e6  | 
w:  Ye şil yurt  F lor ya   | 
Bc3 d2B2 d8  | z^f2f f2f2 ff7  | z2ag ^f2ed e2d2 f2g2  | 
w:  Ba kır köy den  mi    |  Kız  sen_ İs tan bu lun   |  ne re sin den *  sin   SAZ  | 
za2a a2a2 aa7  | z2ba g2^f2 g8  | z2ga b2g2 bb7  | \
w:  Kız  sen_ İs tan bu lun   |  ne re sin den sin    |   | 
b2a2 g2f2 e8  | 
w:   | 
z2fg a2f2 aa7  | a2g2 f2e2 zd2B cBd2  | \
w:   |   | 
z2cd e2c2 ze2g ze2d  | 
w:   | 
c2Bc d2B2 dGAB cdeg  | z^f2f f2f2 ff7  | \
w:   |   | 
z2ag ^f2ed e2d2 f2g2  | 
w:   | 
z2a2 za3 z2a2 za3  | z2ba g2^f2 g8  | \
w:   |   | 
G2zB d2Bd G2zB dBdB  | 
w:   | 
G2zB d2Bd G2zB dBdB  | G2dd d2d2 dd7  | \
w:   |  *  Gü lü şün  sah te  mi   | 
d3c B2A2 G8  | 
w:  yok sa  can dan  mı    | 
e2e2 ee3 ee7  | f3g f2e2 d3B cBdB  | \
w:  Bağ lar ba şın da ki   |  toz lu  yol dan  mı   SAZ  | 
G2dd d2d2 dd7  | 
w:  *  Gü lü şün  sah te  mi   | 
d3c B2A2 G8  | e2e2 ee3 ee7  | f3g f2e2 d3B cBd2  | \
w:  yok sa  can dan  mı    |  Bağ lar ba şın da ki   |  toz lu  yol dan  mı   SAZ  | 
zcd2 e3c ee7  | 
w:  E ren köy  Ka dı köy   | 
B3c d2B2 d8  | z^f2f f2f2 ff7  | z2ag ^f2ed e8  | \
w:  Üs kü dar dan  mı    |  Kız  sen_ İs tan bu lun   |  ne re sin den *  sin    | 
za2a a2a2 aa7  | 
w:  Kız  sen_ İs tan bu lun   | 
z2ba g2^f2 g3d gab2  | g3a bg3 bb7  | \
w:  ne re sin den sin   SAZ  |  Mer ha me tin  ba har   | 
zb2a g2f2 e8  | 
w:  yok sa  kış tan  mı    | 
f3g afa2 a8  | ag3 f2e2 d8  | cd3 e2c2 e2e6  | \
w:  Tat lı  ya na ğın dan   |  ça tık  kaş tan  mı    |  E sen te pe  Yıl dız   | 
Bc3 d2B2 d8  | 
w:  Be şik taş tan  mı    | 
z^f2f f2f2 ff7  | z2ag ^f2ed e2d2 f2g2  | \
w:  Kız  sen_ İs tan bu lun   |  ne re sin den *  sin   SAZ  | 
za2a a2a2 aa7  | 
w:  Kız  sen_ İs tan bu lun   | 
z2ba g2^f2 g8  | |


